governance/ui/src/components/Header/governance-header.svg

<svg width="122" height="14" viewBox="0 0 122 14" fill="none" xmlns="http://www.w3.org/2000/svg">
  <path
    d="M4.1955 11.88H9.1555C9.8555 11.88 10.4355 11.3 10.4355 10.6V8.26H6.7155V6.12H12.9555V10.9C12.9555 12.54 11.5555 14 9.8155 14H3.5355C1.8955 14 0.415496 12.6 0.415496 10.9V3.12C0.415496 1.46 1.8355 -9.53674e-07 3.5355 -9.53674e-07H9.8155C11.4755 -9.53674e-07 12.9555 1.42 12.9555 3.12V4.08H10.4355V3.4C10.4355 2.7 9.8755 2.14 9.1755 2.14H4.1955C3.4955 2.14 2.9155 2.7 2.9155 3.4V10.6C2.9155 11.3 3.4955 11.88 4.1955 11.88ZM22.8755 3.16C24.4155 3.16 25.7155 4.42 25.7155 6V11.16C25.7155 12.7 24.4755 14 22.8755 14H18.0755C16.5755 14 15.2555 12.74 15.2555 11.16V6C15.2555 4.48 16.5155 3.16 18.0755 3.16H22.8755ZM23.3955 10.84V6.32C23.3955 5.68 22.8955 5.18 22.2555 5.18H18.7155C18.0755 5.18 17.5555 5.68 17.5555 6.32V10.84C17.5555 11.5 18.0755 12 18.7155 12H22.2555C22.8955 12 23.3955 11.5 23.3955 10.84ZM36.1183 3.16H38.6183L33.9183 14H31.5383L26.8183 3.16H29.3183L32.6783 11.58H32.7383L36.1183 3.16ZM46.4677 5.14H43.1677C42.5277 5.14 42.0277 5.64 42.0277 6.3V7.54H47.5677V6.24C47.5677 5.6 47.1077 5.14 46.4677 5.14ZM46.9877 14H42.5677C41.0077 14 39.7477 12.72 39.7477 11.16V6C39.7477 4.42 41.0077 3.16 42.5677 3.16H47.0477C48.6077 3.16 49.8277 4.4 49.8277 5.94V9.32H42.0277V10.86C42.0277 11.52 42.5277 12.02 43.1677 12.02H46.4077C47.0477 12.02 47.5677 11.52 47.5677 10.86V10.58H49.8277V11.3C49.8277 12.88 48.5277 14 46.9877 14ZM54.4947 5.86V14H52.1947V3.16H54.4947V4.52L56.1747 3.16H59.5947V5.18H55.1947C54.8147 5.18 54.4947 5.46 54.4947 5.86ZM63.4596 5.86V14H61.1596V3.16H63.4596V4.58L65.1396 3.16H68.6396C70.1796 3.16 71.4796 4.42 71.4796 6V14H69.1596V6.32C69.1596 5.68 68.6596 5.18 68.0196 5.18H64.1596C63.7796 5.18 63.4596 5.46 63.4596 5.86ZM77.3092 12H80.9292C81.3092 12 81.6292 11.7 81.6292 11.3V5.18H77.3092C76.6692 5.18 76.1492 5.68 76.1492 6.32V10.84C76.1492 11.5 76.6692 12 77.3092 12ZM79.8892 14H76.6892C75.1092 14 73.8492 12.68 73.8492 11.16V6C73.8492 4.42 75.1692 3.16 76.6892 3.16H83.9292V14H81.6292V12.52L79.8892 14ZM88.8307 5.86V14H86.5307V3.16H88.8307V4.58L90.5107 3.16H94.0107C95.5507 3.16 96.8507 4.42 96.8507 6V14H94.5307V6.32C94.5307 5.68 94.0307 5.18 93.3907 5.18H89.5307C89.1507 5.18 88.8307 5.46 88.8307 5.86ZM106.36 14H102.04C100.52 14 99.2203 12.74 99.2203 11.16V6C99.2203 4.46 100.46 3.16 102.04 3.16H106.36C107.9 3.16 109.2 4.42 109.2 6V7.02H106.9V6.32C106.9 5.68 106.38 5.18 105.74 5.18H102.68C102.04 5.18 101.52 5.68 101.52 6.32V10.84C101.52 11.5 102.04 12 102.68 12H105.74C106.38 12 106.9 11.5 106.9 10.84V10.16H109.2V11.16C109.2 12.74 107.9 14 106.36 14ZM118.05 5.14H114.75C114.11 5.14 113.61 5.64 113.61 6.3V7.54H119.15V6.24C119.15 5.6 118.69 5.14 118.05 5.14ZM118.57 14H114.15C112.59 14 111.33 12.72 111.33 11.16V6C111.33 4.42 112.59 3.16 114.15 3.16H118.63C120.19 3.16 121.41 4.4 121.41 5.94V9.32H113.61V10.86C113.61 11.52 114.11 12.02 114.75 12.02H117.99C118.63 12.02 119.15 11.52 119.15 10.86V10.58H121.41V11.3C121.41 12.88 120.11 14 118.57 14Z"
    fill="white" />
</svg>

<svg width="122" height="14" fill="none" viewBox="0 0 122 14" xmlns="http://www.w3.org/2000/svg">
  <path fill="#fff" d="M4.196 11.88h4.96c.7 0 1.28-.58 1.28-1.28V8.26h-3.72V6.12h6.24v4.78c0 1.64-1.4 3.1-3.14 3.1h-6.28c-1.64 0-3.12-1.4-3.12-3.1V3.12C.415 1.46 1.835 0 3.535 0h6.28c1.66 0 3.14 1.42 3.14 3.12v.96h-2.52V3.4c0-.7-.56-1.26-1.26-1.26h-4.98c-.7 0-1.28.56-1.28 1.26v7.2c0 .7.58 1.28 1.28 1.28m18.68-8.72A2.85 2.85 0 0 1 25.716 6v5.16c0 1.54-1.24 2.84-2.84 2.84h-4.8c-1.5 0-2.82-1.26-2.82-2.84V6c0-1.52 1.26-2.84 2.82-2.84zm.52 7.68V6.32c0-.64-.5-1.14-1.14-1.14h-3.54c-.64 0-1.16.5-1.16 1.14v4.52c0 .66.52 1.16 1.16 1.16h3.54c.64 0 1.14-.5 1.14-1.16m12.722-7.68h2.5L33.918 14h-2.38l-4.72-10.84h2.5l3.36 8.42h.06zm10.35 1.98h-3.3c-.64 0-1.14.5-1.14 1.16v1.24h5.54v-1.3c0-.64-.46-1.1-1.1-1.1m.52 8.86h-4.42c-1.56 0-2.82-1.28-2.82-2.84V6c0-1.58 1.26-2.84 2.82-2.84h4.48c1.56 0 2.78 1.24 2.78 2.78v3.38h-7.8v1.54c0 .66.5 1.16 1.14 1.16h3.24c.64 0 1.16-.5 1.16-1.16v-.28h2.26v.72c0 1.58-1.3 2.7-2.84 2.7m7.507-8.14V14h-2.3V3.16h2.3v1.36l1.68-1.36h3.42v2.02h-4.4c-.38 0-.7.28-.7.68m8.965 0V14h-2.3V3.16h2.3v1.42l1.68-1.42h3.5A2.85 2.85 0 0 1 71.48 6v8h-2.32V6.32c0-.64-.5-1.14-1.14-1.14h-3.86c-.38 0-.7.28-.7.68M77.31 12h3.62c.38 0 .7-.3.7-.7V5.18h-4.32c-.64 0-1.16.5-1.16 1.14v4.52c0 .66.52 1.16 1.16 1.16m2.58 2h-3.2c-1.58 0-2.84-1.32-2.84-2.84V6c0-1.58 1.32-2.84 2.84-2.84h7.24V14h-2.3v-1.48zm8.94-8.14V14h-2.3V3.16h2.3v1.42l1.68-1.42h3.5A2.85 2.85 0 0 1 96.85 6v8h-2.32V6.32c0-.64-.5-1.14-1.14-1.14h-3.86c-.38 0-.7.28-.7.68M106.36 14h-4.32c-1.52 0-2.82-1.26-2.82-2.84V6c0-1.54 1.24-2.84 2.82-2.84h4.32A2.85 2.85 0 0 1 109.2 6v1.02h-2.3v-.7c0-.64-.52-1.14-1.16-1.14h-3.06c-.64 0-1.16.5-1.16 1.14v4.52c0 .66.52 1.16 1.16 1.16h3.06c.64 0 1.16-.5 1.16-1.16v-.68h2.3v1c0 1.58-1.3 2.84-2.84 2.84m11.69-8.86h-3.3c-.64 0-1.14.5-1.14 1.16v1.24h5.54v-1.3c0-.64-.46-1.1-1.1-1.1m.52 8.86h-4.42c-1.56 0-2.82-1.28-2.82-2.84V6c0-1.58 1.26-2.84 2.82-2.84h4.48c1.56 0 2.78 1.24 2.78 2.78v3.38h-7.8v1.54c0 .66.5 1.16 1.14 1.16h3.24c.64 0 1.16-.5 1.16-1.16v-.28h2.26v.72c0 1.58-1.3 2.7-2.84 2.7"/>
</svg>
